svgs/screencam.svg

<svg viewBox="0 0 192 192" xml:space="preserve" style="fill-rule:evenodd;clip-rule:evenodd;stroke-linejoin:round;stroke-miterlimit:2" xmlns="http://www.w3.org/2000/svg"><path d="M520 652c-22.961 0-45.242 10.047-58.612 28.441-9.908 13.632-14.208 32.714-14.208 51.559 0 22.843 7.445 44.816 21.375 59.345C481.629 804.981 500.642 812 520 812c20.342 0 41.163-6.952 54.396-21.85 12.757-14.361 18.424-36.433 18.424-58.15 0-18.842-4.181-38.049-14.088-51.679C565.364 661.928 542.959 652 520 652Zm0 12c19.124 0 37.89 8.055 49.025 23.376 8.537 11.745 11.795 28.388 11.795 44.624 0 18.687-4.418 37.823-15.395 50.18C554.409 794.581 536.933 800 520 800c-16.071 0-31.929-5.639-42.783-16.959-11.955-12.47-18.037-31.437-18.037-51.041 0-16.234 3.38-32.76 11.915-44.504C482.229 672.177 500.878 664 520 664Zm-9.205 74.377a8.607 8.607 0 0 1 1.031-.246c1.018-.15 2.13-.185 3.25-.162 4.522.091 9.165 1.136 9.79 1.281 1.428.364 19.513 4.934 29.321 4.935 5.792.001 9.891-.995 12.83-3.421 2.927-2.416 5.153-6.508 5.831-14.104 1.064-11.942-3.788-23.51-10.038-32.109-9.748-13.412-26.069-20.683-42.81-20.683-16.743 0-32.976 7.354-42.725 20.767-7.183 9.883-10.348 23.703-10.348 37.365 0 16.571 5.446 32.495 15.551 43.035 8.288 8.644 19.826 13.2 31.98 14.651 3.314.396 7.652-1.597 10.479-5.15 2.897-3.642 3.781-8.39 2.485-11.558-3.482-8.51-13.011-24.856-13.011-24.856l-.049-.082s-2.265-3.712-3.265-7.489c-.167-.63-.259-1.587-.302-2.174Zm5.058 38.056-.98 1.208c-8.996-1.227-17.579-4.492-23.733-10.911-8.13-8.48-12.213-21.398-12.213-34.73 0-11.051 2.244-22.316 8.055-30.31 7.513-10.337 20.114-15.822 33.018-15.822 12.906 0 25.588 5.399 33.103 15.738 4.686 6.447 8.59 15.035 7.792 23.988-.149 1.668-.364 3.051-.695 4.192-.222.764-.391 1.368-.822 1.723-.431.356-1.022.405-1.693.499-1.031.143-2.193.177-3.497.177-9.158-.001-26.337-4.558-26.337-4.558a5.45 5.45 0 0 0-.122-.031s-8.7-2.045-15.661-1.551c-4.285.305-7.966 1.693-10.156 3.882-2.577 2.577-3.583 6.4-3.022 10.672.823 6.27 5.209 13.66 5.209 13.66-.046-.079 8.175 13.952 11.754 22.174Z" style="fill-rule:evenodd;clip-rule:evenodd;stroke-linejoin:round;stroke-miterlimit:2" transform="translate(-424 -636)"/></svg>

<?xml version="1.0" encoding="UTF-8" standalone="no"?>
<svg
   width="100%"
   height="100%"
   viewBox="0 0 192 192"
   version="1.1"
   xml:space="preserve"
   style="fill-rule:evenodd;clip-rule:evenodd;stroke-linejoin:round;stroke-miterlimit:2;"
   id="svg4233"
   sodipodi:docname="screencam.svg"
   inkscape:version="1.2.1 (9c6d41e410, 2022-07-14)"
   xmlns:inkscape="http://www.inkscape.org/namespaces/inkscape"
   xmlns:sodipodi="http://sodipodi.sourceforge.net/DTD/sodipodi-0.dtd"
   xmlns="http://www.w3.org/2000/svg"
   xmlns:svg="http://www.w3.org/2000/svg"><defs
   id="defs4237" /><sodipodi:namedview
   id="namedview4235"
   pagecolor="#ffffff"
   bordercolor="#000000"
   borderopacity="0.25"
   inkscape:showpageshadow="2"
   inkscape:pageopacity="0.0"
   inkscape:pagecheckerboard="0"
   inkscape:deskcolor="#d1d1d1"
   showgrid="false"
   inkscape:zoom="5.3489583"
   inkscape:cx="96.093476"
   inkscape:cy="95.906524"
   inkscape:window-width="1274"
   inkscape:window-height="1303"
   inkscape:window-x="1282"
   inkscape:window-y="36"
   inkscape:window-maximized="0"
   inkscape:current-layer="svg4233" />
    <path
   d="M520,652C497.039,652 474.758,662.047 461.388,680.441C451.48,694.073 447.18,713.155 447.18,732C447.18,754.843 454.625,776.816 468.555,791.345C481.629,804.981 500.642,812 520,812C540.342,812 561.163,805.048 574.396,790.15C587.153,775.789 592.82,753.717 592.82,732C592.82,713.158 588.639,693.951 578.732,680.321C565.364,661.928 542.959,652 520,652ZM520,664C539.124,664 557.89,672.055 569.025,687.376C577.562,699.121 580.82,715.764 580.82,732C580.82,750.687 576.402,769.823 565.425,782.18C554.409,794.581 536.933,800 520,800C503.929,800 488.071,794.361 477.217,783.041C465.262,770.571 459.18,751.604 459.18,732C459.18,715.766 462.56,699.24 471.095,687.496C482.229,672.177 500.878,664 520,664ZM510.795,738.377C511.12,738.282 511.523,738.176 511.826,738.131C512.844,737.981 513.956,737.946 515.076,737.969C519.598,738.06 524.241,739.105 524.866,739.25C526.294,739.614 544.379,744.184 554.187,744.185C559.979,744.186 564.078,743.19 567.017,740.764C569.944,738.348 572.17,734.256 572.848,726.66C573.912,714.718 569.06,703.15 562.81,694.551C553.062,681.139 536.741,673.868 520,673.868C503.257,673.868 487.024,681.222 477.275,694.635C470.092,704.518 466.927,718.338 466.927,732C466.927,748.571 472.373,764.495 482.478,775.035C490.766,783.679 502.304,788.235 514.458,789.686C517.772,790.082 522.11,788.089 524.937,784.536C527.834,780.894 528.718,776.146 527.422,772.978C523.94,764.468 514.411,748.122 514.411,748.122C514.395,748.095 514.379,748.067 514.362,748.04C514.362,748.04 512.097,744.328 511.097,740.551C510.93,739.921 510.838,738.964 510.795,738.377ZM515.853,776.433L514.873,777.641C505.877,776.414 497.294,773.149 491.14,766.73C483.01,758.25 478.927,745.332 478.927,732C478.927,720.949 481.171,709.684 486.982,701.69C494.495,691.353 507.096,685.868 520,685.868C532.906,685.868 545.588,691.267 553.103,701.606C557.789,708.053 561.693,716.641 560.895,725.594C560.746,727.262 560.531,728.645 560.2,729.786C559.978,730.55 559.809,731.154 559.378,731.509C558.947,731.865 558.356,731.914 557.685,732.008C556.654,732.151 555.492,732.185 554.188,732.185C545.03,732.184 527.851,727.627 527.851,727.627C527.81,727.616 527.77,727.606 527.729,727.596C527.729,727.596 519.029,725.551 512.068,726.045C507.783,726.35 504.102,727.738 501.912,729.927C499.335,732.504 498.329,736.327 498.89,740.599C499.713,746.869 504.099,754.259 504.099,754.259C504.053,754.18 512.274,768.211 515.853,776.433Z"
   id="path4227"
   style="fill-rule:evenodd;clip-rule:evenodd;stroke-linejoin:round;stroke-miterlimit:2"
   transform="translate(-424,-636)"
   inkscape:label="screencam" />
</svg>
